X: 3441
T: Betsy Baker
R: reel
M: 4/4
K: Gmajor
ge|dBBG FAAc|BGBd g2 ge|dBBG FAAc|BGAF G2 Bc|
dBBG FAAc|BGBd g2 ge|dBBG FAAc|BGAF G2 Bd||
g2 fg afdf|g2 gf gbag|edef gfed|Beed e2 ef|
g2 fg afdf|g2 gf g2 ga|bgaf gfed|egfa g2||

